X: 0901
T: BONAPARTE'S RETURN FROM ELBA
B: Oliver Ditson "The Boston Collection of Instrumental Music" 1910 p.90 $1
F: http://conquest.imslp.info/files/imglnks/usimg/8/8f/IMSLP175643-PMLP309456-bostoncollection00bost_bw.pdf
%: 2012 John Chambers <jc:trillian.mit.edu>
M: 4/4
L: 1/8
K: D
(3ABc |\
d2f>g a2A2 | B>cd>e f2A2 | B>cd>e f>de>c | d2d>d d2A/B/c/d/ |\
e2c>A e2d>B | e2c>A a2f>d | e>e c>A d>d B>^G | A2A>A A2 :|
|: A2 |\
A>AA>A A>AA>A | (3faf (3dfd A2A2 | Aaaa ag gf | f3g/f/ e2z2 |\
A>AB>B c>cd>d | e>ef>f g3e | f2df e>dc>A | d2d>d d2 :|
|: A2 |\
d4 c2B2 | B>A A>A A2z2 | B4 A2G2 | G2F>F F2A2 |\
dd/e/ fe dcBA | B2b2 A2a2 | G>e F>d E2c2 | d2d>d d2 :|

%%sep 1 1 500
%%sep 1 1 500
